X: 30063
T: BRAVE WOLFE
C:
%R: air, song
B: Elias Howe "The Musician's Companion" Part 3 1844 p.6 #3
S: http://imslp.org/wiki/The_Musician's_Companion_(Howe,_Elias)
S: https://archive.org/stream/firstthirdpartof03howe/#page/66/mode/1up
Z: 2016 John Chambers <jc:trillian.mit.edu>
M: 4/4
L: 1/8
K: Am
% - - - - - - - - - - - - - - - - - - - - - - - - -
% Voice one format all one line for compact display.
V: 1 staves=2
E |\
A3 B c2 dc | HB2 AB c2 BA |\
^G2 A2 z2 z :: c/d/ | e2 e2 dc BA |\
H=G2 cd e2 d2 | g2 e2 z2 E2 |\
A3 B c2 BA | B3 z z2 z2 |\
e3 B c2 BA | ^G2 A2 z2 z :|
% - - - - - - - - - - - - - - - - - - - - - - - - -
% Voice 2 preserves the original staff layout.
V: 2 clef=bass middle=d
a |\
a3 a a2 a2 | He2 a2 a2 a2 |\
e2 A2 z2 z :: F/G/ | c2 c2 fe e2 |
He2 a2 a2 a2 | a2Ha2 z2 A2 |\
A3 A A2 A2 | e3 z z2 z2 |\
a3 e a2 d2 | e2 A2 z2 z :|
% - - - - - - - - - - - - - - - - - - - - - - - - -
